;FLAVOR:Marlin
;TIME:2193
;Filament used: 0.88506m
;Layer height: 0.2
;MINX:72.635
;MINY:72.507
;MINZ:0.2
;MAXX:147.368
;MAXY:147.482
;MAXZ:70.2
;TARGET_MACHINE.NAME:Creality Ender-3 S1 Pro
;Generated with Cura_SteamEngine 5.8.1
M82 ;absolute extrusion mode
; Ender 3 S1 Pro Start G-code
; M413 S0 ; Disable power loss recovery
G92 E0 ; Reset Extruder

; Prep surfaces before auto home for better accuracy
M140 S60
M104 S200

G28 ; Home all axes
G1 Z10.0 F3000 ; Move Z Axis up little to prevent scratching of Heat Bed
G1 X0 Y0

M190 S60
M109 S200

G1 X0.1 Y20 Z0.3 F5000.0 ; Move to start position
G1 X0.1 Y200.0 Z0.3 F1500.0 E15 ; Draw the first line
G1 X0.4 Y200.0 Z0.3 F5000.0 ; Move to side a little
G1 X0.4 Y20 Z0.3 F1500.0 E30 ; Draw the second line
G92 E0 ; Reset Extruder
G1 Z2.0 F3000 ; Move Z Axis up little to prevent scratching of Heat Bed
G1 X5 Y20 Z0.3 F5000.0 ; Move over to prevent blob squish

G92 E0
G92 E0
G1 F2400 E-0.8
;LAYER_COUNT:351
;LAYER:0
M107
M204 S2000
G0 F7500 X83.677 Y83.398 Z0.2
M204 S500
;TYPE:SKIRT
G1 F2400 E0
G1 F1500 X84.025 Y83.058 E0.01618
G1 X84.95 Y82.198 E0.05819
G1 X85.321 Y81.868 E0.0747
G1 X86.433 Y80.937 E0.12294
G1 X87.805 Y79.87 E0.18075
G1 X88.591 Y79.302 E0.213
G1 X89.342 Y78.789 E0.24325
G1 X90.218 Y78.218 E0.27803
G1 X90.697 Y77.925 E0.29671
G1 X92.117 Y77.103 E0.35128
G1 X93.04 Y76.604 E0.38618
G1 X93.913 Y76.166 E0.41866
G1 X94.684 Y75.807 E0.44695
G1 X96.124 Y75.2 E0.49893
G1 X96.744 Y74.96 E0.52104
G1 X97.705 Y74.651 E0.55461
G1 X98.422 Y74.456 E0.57933
G1 X99.697 Y74.188 E0.62266
G1 X103.122 Y73.681 E0.73782
G1 X106.397 Y73.089 E0.84851
G1 X107.767 Y72.815 E0.89498
G1 X108.359 Y72.711 E0.91497
G1 X109.27 Y72.598 E0.9455
G1 X110.414 Y72.52 E0.98364
G1 X111.136 Y72.507 E1.00766
G1 X111.832 Y72.53 E1.03082
G1 X113.571 Y72.643 E1.08878
G1 X114.484 Y72.741 E1.11932
G1 X115.725 Y72.91 E1.16098
G1 X116.77 Y73.083 E1.19621
G1 X117.899 Y73.305 E1.23448
G1 X118.569 Y73.455 E1.25731
G1 X119.771 Y73.762 E1.29858
G1 X120.985 Y74.106 E1.34054
G1 X121.754 Y74.348 E1.36736
G1 X122.577 Y74.622 E1.39621
G1 X123.021 Y74.781 E1.41189
G1 X124.421 Y75.326 E1.46186
G1 X125.705 Y75.879 E1.50836
G1 X126.837 Y76.415 E1.55002
G1 X127.566 Y76.786 E1.57722
G1 X128.363 Y77.219 E1.60739
G1 X129.056 Y77.622 E1.63406
G1 X129.899 Y78.175 E1.66759
G1 X130.614 Y78.694 E1.69697
G1 X131.598 Y79.504 E1.73936
G1 X134.228 Y81.96 E1.85905
G1 X136.15 Y83.651 E1.94419
G1 X137.657 Y84.921 E2.00974
G1 X138.168 Y85.374 E2.03246
G1 X138.611 Y85.794 E2.05276
G1 X139.147 Y86.35 E2.07845
G1 X139.455 Y86.692 E2.09375
G1 X140.053 Y87.418 E2.12504
G1 X140.758 Y88.361 E2.1642
G1 X141.148 Y88.916 E2.18676
G1 X141.549 Y89.517 E2.21079
G1 X142.163 Y90.506 E2.24951
G1 X142.895 Y91.771 E2.29812
G1 X143.1 Y92.148 E2.31239
G1 X143.684 Y93.279 E2.35473
G1 X144.234 Y94.435 E2.39731
G1 X144.856 Y95.889 E2.4499
G1 X145.428 Y97.377 E2.50293
G1 X145.745 Y98.3 E2.53539
G1 X146.146 Y99.591 E2.58035
G1 X146.535 Y101.003 E2.62906
G1 X146.815 Y102.196 E2.66982
G1 X146.96 Y102.953 E2.69545
G1 X147.127 Y103.926 E2.72829
G1 X147.244 Y104.747 E2.75587
G1 X147.31 Y105.405 E2.77787
G1 X147.353 Y106.129 E2.80199
G1 X147.368 Y106.698 E2.82092
G1 X147.356 Y107.55 E2.84926
G1 X147.322 Y108.126 E2.86845
G1 X147.183 Y109.745 E2.9225
G1 X147.006 Y112.225 E3.00519
G1 X146.865 Y116.142 E3.13556
G1 X146.752 Y117.515 E3.18138
G1 X146.643 Y118.244 E3.2059
G1 X146.42 Y119.347 E3.24332
G1 X146.16 Y120.329 E3.27711
G1 X145.871 Y121.302 E3.31087
G1 X145.62 Y122.075 E3.3379
G1 X145.123 Y123.429 E3.38587
G1 X144.714 Y124.439 E3.42212
G1 X144.047 Y125.933 E3.47653
G1 X143.579 Y126.886 E3.51185
G1 X142.966 Y128.042 E3.55537
G1 X142.577 Y128.733 E3.58174
G1 X141.618 Y130.295 E3.6427
G1 X141.38 Y130.664 E3.65731
G1 X140.59 Y131.816 E3.70377
G1 X139.642 Y133.103 E3.75693
G1 X139.257 Y133.595 E3.77771
G1 X138.608 Y134.368 E3.81128
G1 X137.851 Y135.219 E3.84916
G1 X137.36 Y135.741 E3.873
G1 X136.639 Y136.427 E3.9061
G1 X136.064 Y136.924 E3.93138
G1 X135.214 Y137.588 E3.96725
G1 X134.666 Y137.97 E3.98947
G1 X132.126 Y139.675 E4.09122
G1 X130.059 Y141.155 E4.17577
G1 X128.147 Y142.6 E4.25549
G1 X127.082 Y143.307 E4.298
G1 X126.399 Y143.703 E4.32426
G1 X125.355 Y144.233 E4.3632
G1 X124.051 Y144.8 E4.4105
G1 X123.491 Y145.025 E4.43057
G1 X122.867 Y145.252 E4.45266
G1 X121.417 Y145.73 E4.50344
G1 X120.389 Y146.039 E4.53914
G1 X119.255 Y146.34 E4.57816
G1 X118.119 Y146.604 E4.61695
G1 X117.702 Y146.69 E4.63111
G1 X116.15 Y146.977 E4.68361
G1 X115.189 Y147.121 E4.71593
G1 X113.985 Y147.269 E4.75627
G1 X112.944 Y147.366 E4.79105
G1 X112.462 Y147.401 E4.80712
G1 X111.103 Y147.463 E4.85237
G1 X110.1 Y147.482 E4.88573
G1 X108.945 Y147.464 E4.92416
G1 X107.832 Y147.409 E4.96122
G1 X107.193 Y147.361 E4.98253
G1 X106.169 Y147.228 E5.01688
G1 X105.226 Y147.059 E5.04874
G1 X103.812 Y146.707 E5.09721
G1 X102.368 Y146.245 E5.14763
G1 X99.915 Y145.497 E5.23293
G1 X96.877 Y144.672 E5.33763
G1 X95.766 Y144.383 E5.37581
G1 X94.858 Y144.101 E5.40744
G1 X94.165 Y143.841 E5.43205
G1 X93.766 Y143.676 E5.44641
G1 X92.929 Y143.286 E5.47713
G1 X92.107 Y142.86 E5.50792
G1 X91.505 Y142.529 E5.53077
G1 X90.095 Y141.677 E5.58556
G1 X89.372 Y141.212 E5.61415
G1 X88.057 Y140.289 E5.66759
G1 X87.417 Y139.812 E5.69414
G1 X86.677 Y139.231 E5.72543
G1 X85.958 Y138.634 E5.75651
G1 X84.83 Y137.641 E5.8065
G1 X84.356 Y137.2 E5.82803
G1 X83.266 Y136.136 E5.87869
G1 X82.488 Y135.309 E5.91646
G1 X81.293 Y133.95 E5.97665
G1 X80.621 Y133.118 E6.01222
G1 X79.875 Y132.136 E6.05324
G1 X79.185 Y131.163 E6.09291
G1 X78.996 Y130.879 E6.10426
G1 X78.45 Y129.964 E6.1397
G1 X78.052 Y129.216 E6.16788
G1 X77.548 Y128.125 E6.20785
G1 X77.213 Y127.28 E6.23808
G1 X76.724 Y125.972 E6.28453
G1 X75.772 Y123.627 E6.3687
G1 X74.284 Y120.24 E6.49175
G1 X73.873 Y119.145 E6.53065
G1 X73.646 Y118.419 E6.55595
G1 X73.371 Y117.341 E6.59295
G1 X73.18 Y116.371 E6.62583
G1 X73.084 Y115.805 E6.64493
G1 X72.921 Y114.652 E6.68366
G1 X72.864 Y114.168 E6.69987
G1 X72.74 Y112.785 E6.74605
G1 X72.657 Y111.308 E6.79525
G1 X72.635 Y110.162 E6.83338
G1 X72.653 Y108.979 E6.87273
G1 X72.717 Y107.578 E6.91937
G1 X72.792 Y106.624 E6.9512
G1 X72.89 Y105.621 E6.98472
G1 X72.949 Y105.133 E7.00107
G1 X73.124 Y103.919 E7.04186
G1 X73.195 Y103.496 E7.05613
G1 X73.46 Y102.106 E7.10319
G1 X73.644 Y101.293 E7.13092
G1 X73.931 Y100.172 E7.16941
G1 X74.146 Y99.424 E7.19529
G1 X74.35 Y98.764 E7.21827
G1 X74.717 Y97.765 E7.25367
G1 X75.055 Y96.974 E7.28228
G1 X75.646 Y95.798 E7.32605
G1 X77.45 Y92.695 E7.44543
G1 X78.662 Y90.461 E7.52997
G1 X79.576 Y88.695 E7.5961
G1 X79.932 Y88.046 E7.62072
G1 X80.466 Y87.186 E7.65439
G1 X80.873 Y86.596 E7.67823
G1 X81.513 Y85.76 E7.71325
G1 X82.159 Y85.005 E7.7463
G1 X82.742 Y84.362 E7.77517
G1 X83.677 Y83.398 E7.81983
M204 S2000
G0 F7500 X83.956 Y83.684
M204 S500
G1 F1500 X84.297 Y83.351 E7.83569
G1 X85.216 Y82.497 E7.87741
G1 X85.578 Y82.175 E7.89353
G1 X86.679 Y81.253 E7.94129
G1 X88.051 Y80.186 E7.9991
G1 X88.817 Y79.632 E8.03054
G1 X89.561 Y79.124 E8.06051
G1 X90.427 Y78.559 E8.0949
G1 X90.897 Y78.271 E8.11323
G1 X92.307 Y77.455 E8.16741
G1 X93.219 Y76.962 E8.2019
G1 X94.082 Y76.529 E8.23401
G1 X94.839 Y76.176 E8.26179
G1 X96.269 Y75.573 E8.31341
G1 X96.867 Y75.341 E8.33474
G1 X97.81 Y75.037 E8.3677
G1 X98.527 Y74.842 E8.39241
G1 X99.756 Y74.584 E8.43418
G1 X103.186 Y74.076 E8.5495
G1 X106.468 Y73.483 E8.66043
G1 X107.837 Y73.209 E8.70687
G1 X108.409 Y73.108 E8.72619
G1 X109.297 Y72.997 E8.75595
G1 X110.421 Y72.92 E8.79342
G1 X111.123 Y72.907 E8.81678
G1 X111.806 Y72.929 E8.8395
G1 X113.529 Y73.041 E8.89693
G1 X114.43 Y73.137 E8.92707
G1 X115.66 Y73.305 E8.96836
G1 X116.693 Y73.476 E9.00318
G1 X117.811 Y73.695 E9.04108
G1 X118.47 Y73.843 E9.06354
G1 X119.662 Y74.147 E9.10446
G1 X120.865 Y74.488 E9.14604
G1 X121.628 Y74.728 E9.17265
G1 X122.442 Y74.999 E9.20118
G1 X122.876 Y75.154 E9.21651
G1 X124.263 Y75.693 E9.266
G1 X125.534 Y76.241 E9.31204
G1 X126.666 Y76.777 E9.3537
G1 X127.375 Y77.138 E9.38016
G1 X128.162 Y77.565 E9.40994
G1 X128.837 Y77.957 E9.4359
G1 X129.664 Y78.499 E9.46879
G1 X130.36 Y79.003 E9.49737
G1 X131.344 Y79.813 E9.53976
G1 X133.964 Y82.26 E9.659
G1 X135.892 Y83.957 E9.74442
G1 X137.392 Y85.22 E9.80964
G1 X137.893 Y85.664 E9.83191
G1 X138.323 Y86.072 E9.85162
G1 X138.85 Y86.618 E9.87686
G1 X139.147 Y86.947 E9.89161
G1 X139.733 Y87.657 E9.92222
G1 X140.431 Y88.591 E9.96101
G1 X140.815 Y89.138 E9.98323
G1 X141.209 Y89.728 E10.00683
G1 X141.817 Y90.706 E10.04513
G1 X142.544 Y91.963 E10.09343
G1 X142.745 Y92.331 E10.10738
G1 X143.323 Y93.451 E10.1493
G1 X143.866 Y94.593 E10.19135
G1 X144.483 Y96.033 E10.24346
G1 X145.05 Y97.507 E10.29599
G1 X145.363 Y98.419 E10.32806
G1 X145.76 Y99.697 E10.37257
G1 X146.149 Y101.109 E10.42128
G1 X146.422 Y102.272 E10.46101
G1 X146.566 Y103.021 E10.48638
G1 X146.731 Y103.983 E10.51885
G1 X146.846 Y104.787 E10.54586
G1 X146.911 Y105.429 E10.56732
G1 X146.953 Y106.14 E10.59101
G1 X146.968 Y106.693 E10.60941
G1 X146.957 Y107.526 E10.63712
G1 X146.923 Y108.092 E10.65598
G1 X146.784 Y109.711 E10.71002
G1 X146.607 Y112.197 E10.79292
G1 X146.466 Y116.109 E10.92312
G1 X146.356 Y117.456 E10.96807
G1 X146.251 Y118.165 E10.9919
G1 X146.033 Y119.245 E11.02855
G1 X145.777 Y120.215 E11.06192
G1 X145.491 Y121.179 E11.09536
G1 X145.245 Y121.937 E11.12187
G1 X144.752 Y123.279 E11.16942
G1 X144.349 Y124.276 E11.20519
G1 X143.688 Y125.757 E11.25913
G1 X143.226 Y126.699 E11.29402
G1 X142.618 Y127.846 E11.3372
G1 X142.236 Y128.524 E11.36308
G1 X141.282 Y130.078 E11.42373
G1 X141.05 Y130.438 E11.43798
G1 X140.268 Y131.579 E11.48399
G1 X139.327 Y132.857 E11.53677
G1 X138.951 Y133.338 E11.55708
G1 X138.309 Y134.102 E11.59027
G1 X137.559 Y134.945 E11.6278
G1 X137.084 Y135.451 E11.65088
G1 X136.377 Y136.125 E11.68337
G1 X135.818 Y136.609 E11.70796
G1 X134.985 Y137.26 E11.74312
G1 X134.443 Y137.638 E11.7651
G1 X131.903 Y139.343 E11.86685
G1 X129.826 Y140.83 E11.95181
G1 X127.926 Y142.267 E12.03104
G1 X126.881 Y142.961 E12.07277
G1 X126.218 Y143.346 E12.09827
G1 X125.174 Y143.876 E12.13721
G1 X123.902 Y144.429 E12.18334
G1 X123.354 Y144.649 E12.20298
G1 X122.742 Y144.872 E12.22465
G1 X121.302 Y145.347 E12.27508
G1 X120.286 Y145.652 E12.31036
G1 X119.164 Y145.95 E12.34897
G1 X118.038 Y146.212 E12.38743
G1 X117.629 Y146.297 E12.40132
G1 X116.091 Y146.581 E12.45334
G1 X115.14 Y146.724 E12.48532
G1 X113.948 Y146.871 E12.52527
G1 X112.915 Y146.967 E12.55978
G1 X112.443 Y147.001 E12.57552
G1 X111.091 Y147.064 E12.62053
G1 X110.106 Y147.082 E12.6533
G1 X108.965 Y147.064 E12.69125
G1 X107.862 Y147.01 E12.72798
G1 X107.244 Y146.964 E12.74859
G1 X106.24 Y146.834 E12.78227
G1 X105.297 Y146.665 E12.81413
G1 X103.934 Y146.326 E12.86085
G1 X102.485 Y145.862 E12.91145
G1 X100.032 Y145.114 E12.99675
G1 X96.982 Y144.286 E13.10186
G1 X95.885 Y144.001 E13.13956
G1 X94.977 Y143.719 E13.17118
G1 X94.318 Y143.471 E13.1946
G1 X93.935 Y143.313 E13.20838
G1 X93.113 Y142.931 E13.23853
G1 X92.3 Y142.51 E13.26898
G1 X91.712 Y142.186 E13.29131
G1 X90.311 Y141.341 E13.34573
G1 X89.602 Y140.885 E13.37376
G1 X88.296 Y139.968 E13.42684
G1 X87.664 Y139.497 E13.45306
G1 X86.933 Y138.923 E13.48397
G1 X86.214 Y138.326 E13.51505
G1 X85.102 Y137.348 E13.56431
G1 X84.635 Y136.914 E13.58551
G1 X83.557 Y135.862 E13.63561
G1 X82.788 Y135.045 E13.67293
G1 X81.604 Y133.698 E13.73257
G1 X80.939 Y132.876 E13.76774
G1 X80.201 Y131.905 E13.80831
G1 X79.518 Y130.941 E13.8476
G1 X79.329 Y130.657 E13.85895
G1 X78.803 Y129.776 E13.89307
G1 X78.415 Y129.048 E13.92051
G1 X77.92 Y127.978 E13.95972
G1 X77.588 Y127.14 E13.9897
G1 X77.099 Y125.832 E14.03615
G1 X76.143 Y123.477 E14.12068
G1 X74.658 Y120.099 E14.24341
G1 X74.255 Y119.026 E14.28154
G1 X74.034 Y118.32 E14.30614
G1 X73.759 Y117.242 E14.34314
G1 X73.574 Y116.304 E14.37494
G1 X73.48 Y115.749 E14.39367
G1 X73.318 Y114.605 E14.43209
G1 X73.262 Y114.132 E14.44794
G1 X73.139 Y112.763 E14.49365
G1 X73.057 Y111.3 E14.54239
G1 X73.035 Y110.168 E14.58005
G1 X73.053 Y108.997 E14.619
G1 X73.116 Y107.609 E14.66521
G1 X73.19 Y106.663 E14.69677
G1 X73.287 Y105.669 E14.72999
G1 X73.345 Y105.19 E14.74604
G1 X73.519 Y103.985 E14.78653
G1 X73.588 Y103.571 E14.80049
G1 X73.85 Y102.194 E14.84711
G1 X74.031 Y101.392 E14.87446
G1 X74.316 Y100.282 E14.91257
G1 X74.528 Y99.542 E14.93818
G1 X74.725 Y98.902 E14.96045
G1 X75.085 Y97.922 E14.99517
G1 X75.413 Y97.153 E15.02298
G1 X75.992 Y95.999 E15.06592
G1 X77.802 Y92.886 E15.18569
G1 X79.014 Y90.652 E15.27022
G1 X79.931 Y88.879 E15.33661
G1 X80.272 Y88.257 E15.36021
G1 X80.795 Y87.413 E15.39323
G1 X81.191 Y86.839 E15.41643
G1 X81.817 Y86.02 E15.45071
G1 X82.456 Y85.273 E15.48341
G1 X83.029 Y84.64 E15.5118
G1 X83.956 Y83.684 E15.5561
M204 S2000
G0 F7500 X84.235 Y83.97
M204 S500
G1 F1500 X84.569 Y83.644 E15.57162
G1 X85.481 Y82.796 E15.61304
G1 X85.835 Y82.482 E15.62878
G1 X86.925 Y81.569 E15.67607
G1 X88.286 Y80.51 E15.73342
G1 X89.043 Y79.962 E15.76451
G1 X89.779 Y79.459 E15.79416
G1 X90.637 Y78.9 E15.82822
G1 X91.097 Y78.617 E15.84618
G1 X92.497 Y77.807 E15.89998
G1 X93.398 Y77.32 E15.93404
G1 X94.251 Y76.892 E15.96578
G1 X94.995 Y76.545 E15.99309
G1 X96.414 Y75.946 E16.04432
G1 X96.99 Y75.722 E16.06487
G1 X97.915 Y75.423 E16.0972
G1 X98.632 Y75.228 E16.12192
G1 X99.815 Y74.98 E16.16212
G1 X103.25 Y74.471 E16.27762
G1 X106.539 Y73.876 E16.38878
G1 X107.907 Y73.603 E16.43518
G1 X108.459 Y73.505 E16.45383
G1 X109.324 Y73.396 E16.48283
G1 X110.429 Y73.32 E16.51967
G1 X111.11 Y73.307 E16.54232
G1 X111.78 Y73.328 E16.56461
G1 X113.487 Y73.439 E16.62151
G1 X114.376 Y73.533 E16.65124
G1 X115.595 Y73.7 E16.69217
G1 X116.616 Y73.869 E16.72659
G1 X117.723 Y74.085 E16.7641
G1 X118.371 Y74.231 E16.78619
G1 X119.553 Y74.532 E16.82676
G1 X120.745 Y74.87 E16.86797
G1 X121.502 Y75.108 E16.89436
G1 X122.308 Y75.376 E16.92261
G1 X122.731 Y75.527 E16.93755
G1 X124.105 Y76.06 E16.98657
G1 X125.363 Y76.602 E17.03213
G1 X126.484 Y77.133 E17.07339
G1 X127.184 Y77.49 E17.09952
G1 X127.961 Y77.911 E17.12891
G1 X128.618 Y78.292 E17.15417
G1 X129.43 Y78.823 E17.18644
G1 X130.106 Y79.312 E17.21419
G1 X131.09 Y80.122 E17.25658
G1 X133.7 Y82.56 E17.37537
G1 X135.634 Y84.263 E17.46108
G1 X137.127 Y85.52 E17.526
G1 X137.618 Y85.954 E17.54779
G1 X138.035 Y86.35 E17.56692
G1 X138.553 Y86.886 E17.59171
G1 X138.839 Y87.202 E17.60589
G1 X139.413 Y87.896 E17.63584
G1 X140.104 Y88.821 E17.67424
G1 X140.482 Y89.36 E17.69614
G1 X140.869 Y89.939 E17.7193
G1 X141.471 Y90.906 E17.75719
G1 X142.193 Y92.155 E17.80517
G1 X142.39 Y92.514 E17.81879
G1 X142.962 Y93.623 E17.86029
G1 X143.498 Y94.751 E17.90183
G1 X144.11 Y96.177 E17.95344
G1 X144.672 Y97.637 E18.00548
G1 X144.981 Y98.538 E18.03716
G1 X145.374 Y99.803 E18.08122
G1 X145.763 Y101.215 E18.12993
G1 X146.029 Y102.348 E18.16864
G1 X146.172 Y103.089 E18.19374
G1 X146.335 Y104.04 E18.22583
G1 X146.448 Y104.828 E18.25231
G1 X146.512 Y105.452 E18.27317
G1 X146.553 Y106.151 E18.29646
G1 X146.568 Y106.688 E18.31433
G1 X146.558 Y107.502 E18.3414
G1 X146.524 Y108.058 E18.35993
G1 X146.385 Y109.677 E18.41398
G1 X146.208 Y112.169 E18.49707
G1 X146.067 Y116.077 E18.62713
G1 X145.96 Y117.398 E18.67121
G1 X145.859 Y118.086 E18.69434
G1 X145.646 Y119.143 E18.7302
G1 X145.393 Y120.102 E18.76319
G1 X145.111 Y121.056 E18.79628
G1 X144.87 Y121.799 E18.82226
G1 X144.381 Y123.129 E18.86939
G1 X143.984 Y124.113 E18.90468
G1 X143.329 Y125.581 E18.95815
G1 X142.873 Y126.512 E18.99263
G1 X142.27 Y127.65 E19.03546
G1 X141.895 Y128.315 E19.06086
G1 X140.946 Y129.861 E19.12119
G1 X140.72 Y130.212 E19.13508
G1 X139.946 Y131.342 E19.18063
G1 X139.012 Y132.611 E19.23304
G1 X138.645 Y133.081 E19.25287
G1 X138.01 Y133.836 E19.28568
G1 X137.267 Y134.672 E19.32288
G1 X136.808 Y135.162 E19.34521
G1 X136.115 Y135.823 E19.37707
G1 X135.572 Y136.294 E19.40097
G1 X134.756 Y136.932 E19.43543
G1 X134.22 Y137.306 E19.45716
G1 X131.68 Y139.011 E19.55891
G1 X129.593 Y140.505 E19.64428
G1 X127.704 Y141.934 E19.72306
G1 X126.68 Y142.615 E19.76396
G1 X126.037 Y142.989 E19.7887
G1 X125.014 Y143.509 E19.82687
G1 X123.753 Y144.058 E19.87262
G1 X123.217 Y144.273 E19.89182
G1 X122.617 Y144.492 E19.91307
